lib/flags/l/768.svg

<svg xmlns="http://www.w3.org/2000/svg" fill="none" viewBox="0 0 32 24"><mask id="768_svg__a" width="32" height="24" x="0" y="0" mask-type="alpha" maskUnits="userSpaceOnUse"><path fill="#fff" d="M0 0H32V24H0z"/></mask><g mask="url(#768_svg__a)"><path fill="#5EAA22" stroke="#F7FCFF" stroke-width="2" d="M0 -1H-1V0V24V25H0H32H33V24V0V-1H32H0Z"/><path fill="#FECA00" fill-rule="evenodd" d="M0 6V10H32V6H0zM0 14V18H32V14H0z" clip-rule="evenodd"/><path fill="#F50101" d="M0 0H16V14H0z"/><path fill="#F7FCFF" fill-rule="evenodd" d="M8.25 10.1442L4.53068 12.4457L5.97463 8.58212L3 5.97924H6.64778L8.25 2.12988L9.4727 5.97924H13.0766L10.5454 8.58212L11.7911 12.2562L8.25 10.1442Z" clip-rule="evenodd"/></g></svg>

<svg xmlns="http://www.w3.org/2000/svg" fill="none" viewBox="0 0 32 24"><mask id="768_svg__a" width="32" height="24" x="0" y="0" maskUnits="userSpaceOnUse"><path fill="#fff" d="M0 0h32v24H0z"/></mask><g mask="url(#768_svg__a)"><path fill="#5EAA22" stroke="#F7FCFF" stroke-width="2" d="M0-1h-1v26h34V-1H0z"/><path fill="#FECA00" fill-rule="evenodd" d="M0 6v4h32V6H0zm0 8v4h32v-4H0z" clip-rule="evenodd"/><path fill="#F50101" d="M0 0h16v14H0z"/><path fill="#F7FCFF" fill-rule="evenodd" d="M8.25 10.144l-3.72 2.302 1.445-3.864L3 5.98h3.648L8.25 2.13l1.223 3.85h3.604l-2.532 2.603 1.246 3.674-3.541-2.112z" clip-rule="evenodd"/></g></svg>
